images/icon-star.svg

<svg width="16" height="17" viewBox="0 0 16 17" fill="none" xmlns="http://www.w3.org/2000/svg">
<path d="M14.1891 6.16509L10.2219 5.58853L8.44844 1.99322C8.4 1.89478 8.32031 1.81509 8.22187 1.76666C7.975 1.64478 7.675 1.74634 7.55156 1.99322L5.77812 5.58853L1.81094 6.16509C1.70156 6.18072 1.60156 6.23228 1.525 6.31041C1.43244 6.40554 1.38143 6.53353 1.38319 6.66625C1.38495 6.79897 1.43933 6.92557 1.53437 7.01822L4.40469 9.81666L3.72656 13.7682C3.71066 13.8601 3.72083 13.9547 3.75592 14.0411C3.79102 14.1276 3.84963 14.2024 3.92511 14.2572C4.00059 14.3121 4.08992 14.3446 4.18297 14.3513C4.27602 14.3579 4.36907 14.3383 4.45156 14.2948L8 12.4292L11.5484 14.2948C11.6453 14.3463 11.7578 14.3635 11.8656 14.3448C12.1375 14.2979 12.3203 14.0401 12.2734 13.7682L11.5953 9.81666L14.4656 7.01822C14.5437 6.94166 14.5953 6.84166 14.6109 6.73228C14.6531 6.45884 14.4625 6.20572 14.1891 6.16509Z" fill="#FEA250"/>
</svg>

<svg xmlns="http://www.w3.org/2000/svg" width="16" height="17" fill="none"><path fill="#FEA250" d="m14.19 6.165-3.968-.576-1.774-3.596a.502.502 0 0 0-.897 0L5.779 5.59l-3.967.576a.5.5 0 0 0-.277.853l2.87 2.799-.677 3.951a.5.5 0 0 0 .725.527L8 12.429l3.548 1.866a.5.5 0 0 0 .725-.527l-.678-3.951 2.87-2.799a.499.499 0 0 0-.276-.853Z"/></svg>
